X:1
T:Pas de Six, IV. Moderato
T:Pas de Six, IV. Moderato
T:Swan Lake, Piano Arrangement for 3 hands
T:Hinci
C:Hinci
%%score { ( 1 5 ) | ( 2 3 ) | 4 }
L:1/8
Q:3/8=79
M:6/8
K:Eb
V:1 treble nm="Piano" snm="Pno."
V:5 treble 
V:2 bass 
V:3 bass 
V:4 bass 
V:1
"^Moderato"!mp! [GB]2 [GB] [GB]2 [GB] | [GB]2 G [GB]2 [GB] | [FA]2 [FA] [FA]2 [FA] | c2 c edc | %4
 [FAB]6- | [FAB]2 G [GB]2 [GB] | [FA]2 [FA] [FA]2 [FA] | c2 c (edc) | [FAB]6- | %9
 [FAB]2 G [GB]2 [GB] | [FA]2 [FA] [FA]2 [FA] | c2 c (edc) | [FAB]6- | [FAB]2 G [GB]2 [GB] | %14
 [FA]2 [FA] [FA]2 [FA] | c2 c (edc) | B3- B2 A | [B,DG]!mf! .[Bd].[dbd'] [Bgb]2 [Gdg] | %18
 [^Fd^f]2 d d z2 | [B,DG] .[Bd].[dbd'] [Bgb]2 [Gdg] | [^Fd^f][F=Ad][Fde] [Gd=e]2 [Adf] | %21
 [Bdg].[Bd].[dbd'] [Bgb]2 [Gdg] | [^Fd^f]2 d d z2 | [B,DG] .[Bd].[dbd'] [Bgb]2 [Gdg] | %24
 [^Fd^f][F=Ad]!>(![Fde] [Gd=e]2 [Adf]!>)! |!mp! [Bdg]"_cresc." [G,D=E][=A,D^F] [B,DG]2 [B,DG] | %26
 AGA =A2 A | BG=A B2 B | c=Bc!f! [Bd]3 | [GBe]2!mf! G [GB]2 [GB] | [FA]2 [FA] [FA]2 [FA] | %31
 c2 c edc | [FAB]6- | [FAB]2 G [GB]2 [GB] | [FA]2 [FA] [FA]2 [FA] | c2 c (edc) | %36
 [FAB]!f![Bfab][=Bfa=b] [cfac'][^cfa^c'][dfad'] | [ege'] z z z2 !fermata!z |] %38
V:2
 E,2 E, E,2 E, | E,2 E, E,2 E, | E,2 E, E,2 E, | E,2 E, E,2 E, | E,2 E, E,2 E, | E z z B,3 | %6
 E,2 E, E,2 E, | E,2 E, E,2 E, | E,2 E, E,2 E, | E z z B,3 | E,2 E, E,2 E, | E,2 E, E,2 E, | %12
 E,2 E, E,2 E, | E2 z B,3 | E,2 E, E,2 E, | E,2 E, E,2 E, | E,2 E, D,2 D, | (D,=E,^F, G,=A,B,) | %18
 C .^F,.^F ([CD]ED) | (D,=E,^F, G,=A,B,) | C3- (CB,=A,) | (G,=E,^F, G,=A,B,) | C3 (DED) | %23
 (D,=E,^F, G,=A,B,) | C3- (CB,=A,) | [G,,D,G,] z z G,^F,G, | _G,3 F,=E,F, | B,,3 B,=A,B, | %28
 =A,3 _A,G,F, | E,2 E, E,2 E, | E,2 E, E,2 E, | E,2 E, E,2 E, | E,2 E, E,2 E, | E z z B,3 | %34
 E,2 E, E,2 E, | E,2 E, E,2 E, | E,[E,,E,][E,,E,] [E,,E,][E,,E,][E,,E,] | %37
 [E,,E,] z z z2 !fermata!z |] %38
V:3
 B,6- | B,6 | =B,6 | C6 | D6 | E,2 E, E,2 E, | =B,6 | C6 | D6 | E,2 E, E,2 E, | =B,6 | C6 | D6 | %13
 E,2 E, E,2 E, | =B,6 | C6 | ^C3 D3 | G,,6 | G,6 | G,,6 | G,6 | G,,6 | G,6 | G,,6 | G,6 | x6 | x6 | %27
 x6 | x6 | x6 | =B,6 | C6 | D6 | E,2 E, E,2 E, | =B,6 | C6 | x6 | x6 |] %38
V:4
 z6 | z6 | z6 | z6 |[K:treble] z .[Bf].[fa] .[ab].[Bf].[ab] | .[gc'].[eb].[Bg] .[Ge] z z | z6 | %7
 z6 | z .[Bf].[fa] .[ab].[Bf].[fb] | .[eg] z z z2 z | z6 | z6 | z .[Bf].[fa] .[ab].[Bf].[ab] | %13
 .[gc'].[eb].[Bg] .[Ge] z z | z6 | z6 | z .[Bg].[gb] .[bd'].[^fb].[cf] | .[Bg] z z z2 z | z6 | z6 | %20
 z6 | z6 | z6 | z6 | z6 | z6 | z6 | z6 | z6 | z!f! GE B,3 | =B,AF B,3 | CGE C3 | %32
 z .[Bf].[fa] .[ab].[Bf].[ab] | .[gc'].[egb].[Beg] [GBe]3 | =B,AF B,3 | CGE C3 | %36
 z [FA][FA] [FA][FA][FA] | [EGB] z z z2 !fermata!z |] %38
V:5
 x6 | x2 B (gfe) | d2 d (fed) | [EG]2 [EG] [EG]2 [EG] | x6 | x2 B (gfe) | d2 d (fed) | %7
 [EG]2 [EG] [EG]2 [EG] | x6 | x2 B (gfe) | d2 d (fed) | [EG]2 [EG] [EG]2 [EG] | x6 | x2 B (gfe) | %14
 d2 d (fed) | [EG]2 [EG] [EG]2 [EG] | [B,G]2 [B,G] [C^F]2 [CF] | x6 | z .[=A,D].[=Ad] [^FB]2 A | %19
 x6 | x6 | x6 | z .[=A,D].[=Ad] [^FB]2 A | x6 | x6 | x6 | [CE]3 [CE]2 [CE] | [DF]3 [DF]2 [DF] | %28
 [E_G]3 F=GA | x2 B (gfe) | d2 d (fed) | [EG]2 [EG] [EG]2 [EG] | x6 | x2 B (gfe) | d2 d (fed) | %35
 [EG]2 [EG] [EG]2 [EG] | x6 | x6 |] %38

